gama.ui.shared/icons_svg/dark/gaml/_map.svg

<svg height="18" viewBox="-129.587 -2834.086 24 18" width="24" xmlns="http://www.w3.org/2000/svg"><path d="m-129.5871-2830.163c0-.508.41539-.9232.92308-.9232h.92308c.50769 0 .92308.4152.92308.9232v.923c0 .5076-.41539.923-.92308.923h-.92308c-.50769 0-.92308-.4154-.92308-.923zm5.07693.923c-.25846 0-.46154-.203-.46154-.4616 0-.2584.20308-.4614.46154-.4614h11.07692c.25846 0 .46154.203.46154.4614 0 .2586-.20308.4616-.46154.4616zm-5.07693 3.6922c0-.5076.41539-.9232.92308-.9232h.92308c.50769 0 .92308.4156.92308.9232v.9231c0 .5077-.41539.9231-.92308.9231h-.92308c-.50769 0-.92308-.4154-.92308-.9231zm5.07693.9231c-.25846 0-.46154-.2031-.46154-.4615 0-.2585.20308-.4616.46154-.4616h11.07692c.25846 0 .46154.2031.46154.4616 0 .2584-.20308.4615-.46154.4615zm-5.07693 3.6923c0-.5076.41539-.923.92308-.923h.92308c.50769 0 .92308.4154.92308.923v.9231c0 .5077-.41539.9231-.92308.9231h-.92308c-.50769 0-.92308-.4154-.92308-.9231zm.92308-9.2306v.923h.92308v-.923zm0 4.6152v.9231h.92308v-.9231zm0 4.6154v.9231h.92308v-.9231zm4.15385.9231c-.25846 0-.46154-.2031-.46154-.4617 0-.2583.20308-.4614.46154-.4614h11.07692c.25846 0 .46154.2031.46154.4614 0 .2586-.20308.4617-.46154.4617z" fill="#999"/></svg>

<?xml version="1.0" encoding="UTF-8" standalone="no"?>
<!DOCTYPE svg PUBLIC "-//W3C//DTD SVG 1.1//EN" "http://www.w3.org/Graphics/SVG/1.1/DTD/svg11.dtd">
<svg xmlns:dc="http://purl.org/dc/elements/1.1/" xmlns:xl="http://www.w3.org/1999/xlink" version="1.1" xmlns="http://www.w3.org/2000/svg" viewBox="-129.5871 -2834.0862 24 18" width="24" height="18">
  <defs/>
  <g id="SOURCES" stroke-dasharray="none" stroke="none" stroke-opacity="1" fill="none" fill-opacity="1">
    <title>SOURCES</title>
    <g id="SOURCES_New">
      <title>New</title>
      <g id="Group_10493">
        <g id="Graphic_10175"/>
        <g id="Group_10072">
          <title>list-bullet</title>
          <g id="Graphic_10073">
            <path d="M -129.5871 -2830.163 C -129.5871 -2830.671 -129.17171 -2831.0862 -128.66402 -2831.0862 L -127.74094 -2831.0862 C -127.23325 -2831.0862 -126.81786 -2830.671 -126.81786 -2830.163 L -126.81786 -2829.24 C -126.81786 -2828.7324 -127.23325 -2828.317 -127.74094 -2828.317 L -128.66402 -2828.317 C -129.17171 -2828.317 -129.5871 -2828.7324 -129.5871 -2829.24 Z M -124.51017 -2829.24 C -124.76863 -2829.24 -124.97171 -2829.443 -124.97171 -2829.7016 C -124.97171 -2829.96 -124.76863 -2830.163 -124.51017 -2830.163 L -113.43325 -2830.163 C -113.17479 -2830.163 -112.97171 -2829.96 -112.97171 -2829.7016 C -112.97171 -2829.443 -113.17479 -2829.24 -113.43325 -2829.24 Z M -129.5871 -2825.5478 C -129.5871 -2826.0554 -129.17171 -2826.471 -128.66402 -2826.471 L -127.74094 -2826.471 C -127.23325 -2826.471 -126.81786 -2826.0554 -126.81786 -2825.5478 L -126.81786 -2824.6247 C -126.81786 -2824.117 -127.23325 -2823.7016 -127.74094 -2823.7016 L -128.66402 -2823.7016 C -129.17171 -2823.7016 -129.5871 -2824.117 -129.5871 -2824.6247 Z M -124.51017 -2824.6247 C -124.76863 -2824.6247 -124.97171 -2824.8278 -124.97171 -2825.0862 C -124.97171 -2825.3447 -124.76863 -2825.5478 -124.51017 -2825.5478 L -113.43325 -2825.5478 C -113.17479 -2825.5478 -112.97171 -2825.3447 -112.97171 -2825.0862 C -112.97171 -2824.8278 -113.17479 -2824.6247 -113.43325 -2824.6247 Z M -129.5871 -2820.9324 C -129.5871 -2821.44 -129.17171 -2821.8554 -128.66402 -2821.8554 L -127.74094 -2821.8554 C -127.23325 -2821.8554 -126.81786 -2821.44 -126.81786 -2820.9324 L -126.81786 -2820.0093 C -126.81786 -2819.5016 -127.23325 -2819.0862 -127.74094 -2819.0862 L -128.66402 -2819.0862 C -129.17171 -2819.0862 -129.5871 -2819.5016 -129.5871 -2820.0093 Z M -128.66402 -2830.163 L -128.66402 -2829.24 L -127.74094 -2829.24 L -127.74094 -2830.163 Z M -128.66402 -2825.5478 L -128.66402 -2824.6247 L -127.74094 -2824.6247 L -127.74094 -2825.5478 Z M -128.66402 -2820.9324 L -128.66402 -2820.0093 L -127.74094 -2820.0093 L -127.74094 -2820.9324 Z M -124.51017 -2820.0093 C -124.76863 -2820.0093 -124.97171 -2820.2124 -124.97171 -2820.471 C -124.97171 -2820.7293 -124.76863 -2820.9324 -124.51017 -2820.9324 L -113.43325 -2820.9324 C -113.17479 -2820.9324 -112.97171 -2820.7293 -112.97171 -2820.471 C -112.97171 -2820.2124 -113.17479 -2820.0093 -113.43325 -2820.0093 Z" fill="#999"/>
          </g>
        </g>
      </g>
    </g>
  </g>
</svg>
